!!!OTL: 53. Nur guten Muth.
!!!ARE: Europa, Mitteleuropa, Deutschland
!!!SCT: F0053
!!!YEM: Copyright 1995, estate of Helmut Schaffrath.
**kern	**text
*ICvox	*
*Ivox	*
*clefG2	*
*M6/8	*
*k[f#c#]	*
*D:	*
!LO:TX:a:t=P:only higher voice encoded:problem	!
!LO:TX:a:t=Entschloſſen.	!
{8a	Ein
=1	=1
4a	Herʒ,
8dd/	das
4f#	ſich
8f#	mit
=2	=2
8f#L	Sorgen
8eJ	.
8f#	.
4d}	quält,
{8a	hat
=3	=3
4a	ſel-
8g	-ten
4g	fro-
8f#	-he
=4	=4
8f#	Stunden
8e	.
8r	.
4r}	.
{8a	es
=5	=5
4a	hat
8dd/	ſich
4f#	ſchon
8f#	ſein
=6	=6
8f#L	Theil
8eJ	.
8f#	erwählt,
4d}	.
{8a	die
=7	=7
4a	Hoffnung
8g	.
4g	iſt
8f#	verſchwunden.
=8	=8
8f#	.
8e	.
8r	.
4r}	.
{8a	Nur
=9	=9
4g#	glücklich
8e	.
(8a/L	iſt,
8cc#J)	.
8ee	wer
=10	=10
(8ddL	das
8bJ)	.
8g	vergißt,
4a}	.
{8a	was
=11	=11
4g#	ein-
8e	-mal
(8a/L	nicht
8cc#J)	.
8ee	ʒu
=12	=12
(8ddL	än-
8bJ)	.
8g#	-dern
(>4a;	iſt,
8g)}	.
=13	=13
{8f#	nur
8f#	glücklich
8f#	.
(8aL^	iſt,
8gJ)	.
8r	.
=14	=14
8e	wer
8e	das
8e	ver-
(8bL	-gißt,
8aJ)	.
8r}	.
=15	=15
{8dd/	was
8dd/	ein-
8dd/	-mal
4ee/	nicht
8ee/	ʒu
=16	=16
8.aL	än-
16bJ	.
8cc#	-dern
4dd}	iſt.
==	==
!!!AGN: Moral - Lied, Optimismus
!!!ONB: ESAC (Essen Associative Code) Database: FINK
!!!AMT: compound duple
!!!AIN: vox
!!!EED: Helmut Schaffrath
!!!EEV: 1.0
!!!RDF**kern: > = above
!!!GTL: Volkslieder
!!!URL-scan: https://www.digitale-sammlungen.de/en/view/bsb11144622?page=40,41
!!!ENC: Anna Maria Matuszewska
!!!EEV: 2024/25/07
*-	*-
